X: 2011
T: Bore Angletar.
%R: bourr\'ee
B: Henry Playford "Apollo's Banquet", London 1687 (5th Edition)
F: https://archive.org/details/apollosbanquetco01rugg
Z: 2017 John Chambers <jc:trillian.mit.edu>
M: C|
L: 1/8
K: Gm
% - - - - - - - - - -
g2 |\
^f2d2 gfga | b3a g3f |\
edcA B2c2 | d6 :: d2 |\
d3=e f2g2 | c3d e2f2 |
Bcd2 cdBc | A2G4 dd |\
e2 c4 fe | f2 d4 ga |\
^f(g/a/) b>f a3g | g6 |]
% - - - - - - - - - -

%%sep 1 1 500
%%sep 1 1 500

